img/icons/icons-services/icon-webinars.svg

<svg width="120" height="120" viewBox="0 0 120 120" fill="none" xmlns="http://www.w3.org/2000/svg">
<path d="M98.6136 113.741H20.3828C12.5943 113.741 6.25781 107.404 6.25781 99.6158C6.25781 99.3277 6.37229 99.0513 6.57605 98.8475C6.77982 98.6438 7.05618 98.5293 7.34435 98.5293H111.652C111.94 98.5293 112.217 98.6438 112.42 98.8475C112.624 99.0513 112.739 99.3277 112.739 99.6158C112.739 107.404 106.402 113.741 98.6136 113.741ZM8.47978 100.702C9.03022 106.786 14.1585 111.568 20.3828 111.568H98.6136C104.838 111.568 109.966 106.786 110.516 100.702H8.47978Z" fill="#282828"/>
<path d="M105.137 100.702H13.8678C13.5796 100.702 13.3033 100.588 13.0995 100.384C12.8957 100.18 12.7812 99.9039 12.7812 99.6158V40.9427C12.7812 36.7489 16.1932 33.3369 20.387 33.3369H59.5024C59.7906 33.3369 60.0669 33.4514 60.2707 33.6552C60.4745 33.8589 60.5889 34.1353 60.5889 34.4235V36.5965C60.5889 39.5921 63.026 42.0292 66.0216 42.0292C66.3098 42.0292 66.5862 42.1437 66.7899 42.3475C66.9937 42.5512 67.1082 42.8276 67.1082 43.1158V53.5311L78.2919 42.3476C78.3928 42.2467 78.5125 42.1667 78.6444 42.1121C78.7762 42.0575 78.9174 42.0294 79.0601 42.0294H105.137C105.425 42.0294 105.702 42.1439 105.905 42.3477C106.109 42.5514 106.224 42.8278 106.224 43.116V99.616C106.224 99.7587 106.195 99.8999 106.141 100.032C106.086 100.164 106.006 100.283 105.905 100.384C105.804 100.485 105.685 100.565 105.553 100.62C105.421 100.674 105.28 100.702 105.137 100.702ZM14.9543 98.5292H104.05V44.2023H79.5101L66.7898 56.9226C66.6378 57.0745 66.4442 57.178 66.2335 57.2199C66.0227 57.2618 65.8043 57.2403 65.6058 57.158C65.4072 57.0758 65.2376 56.9365 65.1182 56.7578C64.9988 56.5792 64.9351 56.3691 64.9351 56.1542V44.1249C61.2541 43.596 58.4159 40.4216 58.4159 36.5965V35.51H20.387C17.3914 35.51 14.9543 37.9471 14.9543 40.9427V98.5292Z" fill="#282828"/>
<path d="M66.0208 57.2405C65.7327 57.2405 65.4564 57.126 65.2527 56.9222C65.0489 56.7185 64.9345 56.4421 64.9345 56.154V44.1247C61.2535 43.5958 58.4153 40.4214 58.4153 36.5963V14.8655C58.4153 10.6717 61.8272 7.25977 66.021 7.25977H105.136C109.33 7.25977 112.742 10.6717 112.742 14.8655V36.5963C112.742 40.7901 109.33 44.2021 105.136 44.2021H79.5095L66.7892 56.9224C66.6883 57.0233 66.5685 57.1033 66.4367 57.1579C66.3048 57.2125 66.1635 57.2406 66.0208 57.2405ZM66.021 9.43284C63.0254 9.43284 60.5883 11.8699 60.5883 14.8655V36.5963C60.5883 39.5919 63.0254 42.029 66.021 42.029C66.3092 42.029 66.5856 42.1435 66.7893 42.3472C66.9931 42.551 67.1076 42.8274 67.1076 43.1155V53.5309L78.2913 42.3474C78.3922 42.2465 78.5119 42.1665 78.6438 42.1119C78.7756 42.0573 78.9168 42.0292 79.0595 42.0292H105.136C108.132 42.0292 110.569 39.5921 110.569 36.5965V14.8655C110.569 11.8699 108.132 9.43284 105.136 9.43284H66.021ZM39.9441 65.9328C33.3538 65.9328 27.9922 60.5712 27.9922 53.9809C27.9922 47.3906 33.3538 42.029 39.9441 42.029C46.5344 42.029 51.896 47.3906 51.896 53.9809C51.896 60.5712 46.5344 65.9328 39.9441 65.9328ZM39.9441 44.2021C34.5521 44.2021 30.1653 48.5889 30.1653 53.9809C30.1653 59.373 34.5521 63.7598 39.9441 63.7598C45.3362 63.7598 49.723 59.373 49.723 53.9809C49.723 48.5889 45.3362 44.2021 39.9441 44.2021Z" fill="#282828"/>
<path d="M57.3245 92.0098H22.5553C22.2671 92.0098 21.9908 91.8954 21.787 91.6916C21.5832 91.4878 21.4688 91.2115 21.4688 90.9233V77.8848C21.4688 70.0963 27.8052 63.7598 35.5938 63.7598H44.2861C52.0746 63.7598 58.4111 70.0963 58.4111 77.8848V90.9233C58.4111 91.2115 58.2966 91.4878 58.0928 91.6916C57.8891 91.8954 57.6127 92.0098 57.3245 92.0098ZM23.6418 89.8368H56.238V77.8848C56.238 71.2946 50.8763 65.9329 44.2861 65.9329H35.5938C29.0035 65.9329 23.6418 71.2946 23.6418 77.8848V89.8368ZM102.959 18.1252H68.1899C67.9017 18.1252 67.6254 18.0108 67.4216 17.807C67.2178 17.6032 67.1034 17.3269 67.1034 17.0387C67.1034 16.7505 67.2178 16.4742 67.4216 16.2704C67.6254 16.0666 67.9017 15.9521 68.1899 15.9521H102.959C103.247 15.9521 103.524 16.0666 103.727 16.2704C103.931 16.4742 104.046 16.7505 104.046 17.0387C104.046 17.3269 103.931 17.6032 103.727 17.807C103.524 18.0108 103.247 18.1252 102.959 18.1252ZM102.959 26.8175H68.1899C67.9017 26.8175 67.6254 26.7031 67.4216 26.4993C67.2178 26.2955 67.1034 26.0192 67.1034 25.731C67.1034 25.4428 67.2178 25.1665 67.4216 24.9627C67.6254 24.7589 67.9017 24.6445 68.1899 24.6445H102.959C103.247 24.6445 103.524 24.7589 103.727 24.9627C103.931 25.1665 104.046 25.4428 104.046 25.731C104.046 26.0192 103.931 26.2955 103.727 26.4993C103.524 26.7031 103.247 26.8175 102.959 26.8175ZM102.959 35.5098H68.1899C67.9017 35.5098 67.6254 35.3954 67.4216 35.1916C67.2178 34.9878 67.1034 34.7115 67.1034 34.4233C67.1034 34.1351 67.2178 33.8588 67.4216 33.655C67.6254 33.4512 67.9017 33.3368 68.1899 33.3368H102.959C103.247 33.3368 103.524 33.4512 103.727 33.655C103.931 33.8588 104.046 34.1351 104.046 34.4233C104.046 34.7115 103.931 34.9878 103.727 35.1916C103.524 35.3954 103.247 35.5098 102.959 35.5098Z" fill="#282828"/>
</svg>

<svg width="120" height="120" fill="none" xmlns="http://www.w3.org/2000/svg"><path d="M98.614 113.741H20.383c-7.789 0-14.125-6.337-14.125-14.125a1.087 1.087 0 011.086-1.087h104.308a1.085 1.085 0 011.087 1.087c0 7.788-6.337 14.125-14.125 14.125zM8.48 100.702c.55 6.084 5.678 10.866 11.903 10.866h78.23c6.225 0 11.353-4.782 11.903-10.866H8.48z" fill="#282828"/><path d="M105.137 100.702h-91.27a1.085 1.085 0 01-1.086-1.086V40.943c0-4.194 3.412-7.606 7.606-7.606h39.115a1.086 1.086 0 011.087 1.086v2.173a5.439 5.439 0 005.433 5.433 1.086 1.086 0 011.086 1.087V53.53l11.184-11.183a1.086 1.086 0 01.768-.319h26.077a1.085 1.085 0 011.087 1.087v56.5a1.1 1.1 0 01-.319.768 1.09 1.09 0 01-.768.318zm-90.183-2.173h89.096V44.202H79.51l-12.72 12.72a1.087 1.087 0 01-1.855-.768v-12.03c-3.68-.528-6.52-3.702-6.52-7.528V35.51H20.388a5.439 5.439 0 00-5.433 5.433v57.586z" fill="#282828"/><path d="M66.02 57.24a1.086 1.086 0 01-1.085-1.086v-12.03c-3.681-.528-6.52-3.703-6.52-7.528v-21.73c0-4.194 3.412-7.606 7.606-7.606h39.115c4.194 0 7.606 3.412 7.606 7.606v21.73c0 4.194-3.412 7.606-7.606 7.606H79.51l-12.72 12.72a1.087 1.087 0 01-.77.319zm.001-47.807a5.439 5.439 0 00-5.433 5.433v21.73a5.439 5.439 0 005.433 5.433 1.087 1.087 0 011.087 1.086v10.416L78.29 42.347a1.086 1.086 0 01.769-.318h26.076a5.439 5.439 0 005.433-5.433v-21.73a5.439 5.439 0 00-5.433-5.433H66.021zm-26.077 56.5c-6.59 0-11.952-5.362-11.952-11.952s5.362-11.952 11.952-11.952 11.952 5.362 11.952 11.952-5.362 11.952-11.952 11.952zm0-21.73c-5.392 0-9.779 4.386-9.779 9.778s4.387 9.779 9.78 9.779c5.391 0 9.778-4.387 9.778-9.78 0-5.391-4.387-9.778-9.779-9.778z" fill="#282828"/><path d="M57.325 92.01h-34.77a1.086 1.086 0 01-1.086-1.087V77.885c0-7.789 6.336-14.125 14.125-14.125h8.692c7.789 0 14.125 6.336 14.125 14.125v13.038a1.086 1.086 0 01-1.087 1.087zm-33.683-2.173h32.596V77.885c0-6.59-5.362-11.952-11.952-11.952h-8.692c-6.59 0-11.952 5.362-11.952 11.952v11.952zm79.317-71.712h-34.77a1.086 1.086 0 110-2.173h34.77a1.085 1.085 0 011.087 1.087 1.086 1.086 0 01-1.087 1.086zm0 8.692h-34.77a1.086 1.086 0 110-2.172h34.77a1.085 1.085 0 011.087 1.086 1.086 1.086 0 01-1.087 1.086zm0 8.693h-34.77a1.086 1.086 0 110-2.173h34.77a1.085 1.085 0 011.087 1.086 1.086 1.086 0 01-1.087 1.087z" fill="#282828"/></svg>
